!!!COM: Palestrina, Giovanni Perluigi da
!!!OPR: Missa In illo tempore
!!!OMD: Credo
!!!OTL: Et incarnatus
**kern	**kern	**kern	**kern
*Ibass	*Itenor	*Icalto	*Icant
!Bassus	!Tenor	!Altus	!Cantus
*clefF4	*clefGv2	*clefG2	*clefG2
*k[]	*k[]	*k[]	*k[]
*A:aeo	*A:aeo	*A:aeo	*A:aeo
*M4/2	*M4/2	*M4/2	*M4/2
=79	=79	=79	=79
0A	0c#	0e	0a
=80	=80	=80	=80
1D	1d	1f	1a
1E	2B	2.e	1g
.	[2e	.	.
.	.	4d	.
=81	=81	=81	=81
1.A	4e]	4c	1.cc
.	4d	4B	.
.	4c	2A	.
.	4B	.	.
.	2A	2c	.
4G	2B	2d	4b
4F	.	.	4a
=82	=82	=82	=82
2E	1c	1e	2g
1A	.	.	2a
.	1B	1E	1b
2G#	.	.	.
=83	=83	=83	=83
1A	1.c	0e	2r
.	.	.	2e
[1E	.	.	[1g
.	4B	.	.
.	4A	.	.
=84	=84	=84	=84
1E]	2B	1e	1g]
.	1c	.	.
1G	.	2d	1g
.	2B	2d	.
=85	=85	=85	=85
2D	1d	1.f	2a
2D	.	.	1a
[1F	1c	.	.
.	.	4e	4g
.	.	4d	4f
=86	=86	=86	=86
1F]	2.A	2c	1a
.	.	2d	.
.	4B	.	.
1C	1c	1e	1g
=87	=87	=87	=87
1F	1.A	1c	2r
.	.	.	1f
1D	.	1d	.
.	2A	.	2f
=88	=88	=88	=88
1F	1A	1c	1f
1C	1G	2.c	2e
.	.	.	[2cc
.	.	4d	.
=89	=89	=89	=89
2.C	1.c	1e	2cc]
.	.	.	4b
4D	.	.	4a
[1E	.	[1e	2.g
.	4B	.	.
.	4A	.	4a
=90	=90	=90	=90
2E]	2G	2e]	2b
2F	2A	2c	2a
1E	[1B	2e	1g#
.	.	2e	.
=91	=91	=91	=91
1E	1B]	2.g	2r
.	.	.	2e
.	.	4f	.
1E	1B	1e	1g
=92	=92	=92	=92
1D	1d	1A	1f
[1F	[1c	2r	2.a
.	.	[2A	.
.	.	.	4b
=93	=93	=93	=93
2F]	2c]	4A]	1.cc
.	.	4B	.
4E	1e	4c	.
4D	.	4d	.
2C	.	2e	.
2D	4d	2f	4b
.	4c	.	4a
=94	=94	=94	=94
0E	2B	0e	2g#
.	2c	.	1a
.	1B	.	.
.	.	.	2g#
=95	=95	=95	=95
0A	1A	2r	1a
.	.	1e	.
.	1r	.	1cc
.	.	2f	.
=96	=96	=96	=96
0r	0r	2e	2cc
.	.	2d	2b
.	.	2f	2a
.	.	4e	[2cc
.	.	4d	.
=97	=97	=97	=97
0r	1r	2c	2cc]
.	.	2d	4b
.	.	.	4a
.	1c	2.e	2g
.	.	.	2a
.	.	4f	.
=98	=98	=98	=98
0r	2c	2g	2e
.	2B	2d	2g
.	2A	2f	1a
.	[2c	[2e	.
=99	=99	=99	=99
0r	2c]	2e]	1e
.	4B	4d	.
.	4A	4c	.
.	2G	2B	2e
.	2A	2c	4e
.	.	.	4f
=100	=100	=100	=100
0r	2E	2e	4g
.	.	.	4a
.	2G	2.d	2.b
.	1A	.	.
.	.	4c	4a
.	.	4c	[2a
.	.	8B	.
.	.	8A	.
=101	=101	=101	=101
2r	1E	1B	2a]
2E	.	.	2g#
1F	2r	1A	1a
.	2c	.	.
=102	=102	=102	=102
2E	2c	0r	0r
2D	2B	.	.
2F	2A	.	.
4E	[2c	.	.
4D	.	.	.
=103	=103	=103	=103
2C	2c]	0r	0r
2.E	4B	.	.
.	4A	.	.
.	2G	.	.
4D	.	.	.
2C	[2A	.	.
=104	=104	=104	=104
1BB	2A]	1r	1b
.	2G#	.	.
1AA	1A	2r	1cc
.	.	[2e	.
=105	=105	=105	=105
0r	0r	2e]	2b
.	.	2f	2a
.	.	2e	2cc
.	.	2d	2b
=106	=106	=106	=106
0r	2r	2f	2.a
.	1A	4e	.
.	.	4d	8g
.	.	.	8f
.	.	2.c	[1e
.	2c	.	.
.	.	8B	.
.	.	8A	.
=107	=107	=107	=107
1r	2B	2G	1e]
.	2A	1A	.
2r	2c	.	[1e
[2E	4B	4G	.
.	4A	4A	.
=108	=108	=108	=108
2E]	2G	4B	2e]
.	.	8A	.
.	.	8B	.
2C	1A	2c	2e
2D	.	1B	2f
2E	2G#	.	2e
=109	=109	=109	=109
1AA	1A	1c#	1e
1r	1r	1r	1r
*-	*-	*-	*-
!!!CDT: 1525/^1526/-1594/2/2
!!!OCY: Italia
!!!AGN: Mass (Parody)
!!!AST: renaissance, vocal
!!!ASW: Motet 1518 (Moulu)
!!!PWK: Masses, Book 10
!!!RNB: Cadence finals: E,G,C
!!!YOR: Le Opere Complete, v. 27, p. 1
!!!YOO: Rome, Italy: Fratelli Scalera
!!!END: 1992//
!!!EED: John Miller
!!!YEC: Copyright 2000, John Miller
!!!YEN: United States of America
!!!YEM: Rights to all derivative electronic formats reserved.
!!!YEM: Refer to licensing agreement for further details.
!!!YEM: This file must be accompanied by the licensing agreement.
!!!YEM: A copy of the licensing agreement may be found at http://www.music-cog.ohio-state.edu/HumdrumDatabases/Palestrina/license.txt
!!!EMD: converted to Humdrum by Bret Aarden
